;FLAVOR:Marlin
;TIME:723
;Filament used: 0.257658m
;Layer height: 0.2
;MINX:92.531
;MINY:92.538
;MINZ:0.2
;MAXX:127.452
;MAXY:127.467
;MAXZ:19.4
;Generated with Cura_SteamEngine master
M140 S60
M105
M190 S60
M104 S200
M105
M109 S200
M82 ;absolute extrusion mode
G28 ; home all axes
 M117 Purge extruder
 G92 E0 ; reset extruder
 G1 Z1.0 F3000 ; move z up little to prevent scratching of surface
 G1 X2 Y20 Z0.3 F5000.0 ; move to start-line position
 G1 X2 Y200.0 Z0.3 F1500.0 E15 ; draw 1st line
 G1 X2 Y200.0 Z0.4 F5000.0 ; move to side a little
 G1 X2 Y20 Z0.4 F1500.0 E30 ; draw 2nd line
 G92 E0 ; reset extruder
 G1 Z1.0 F3000 ; move z up little to prevent scratching of surface
G92 E0
G92 E0
G1 F1500 E-2
;LAYER_COUNT:97
;LAYER:0
M107
G0 F6000 X97.216 Y98.062 Z0.2
;TYPE:SKIRT
G1 F1500 E0
G1 F1200 X97.89 Y97.395 E0.03469
G1 X98.129 Y97.177 E0.04653
G1 X98.447 Y96.897 E0.06203
G1 X98.715 Y96.671 E0.07486
G1 X99.233 Y96.242 E0.09946
G1 X99.519 Y96.012 E0.11289
G1 X100.297 Y95.449 E0.14803
G1 X100.897 Y95.078 E0.17383
G1 X101.077 Y94.974 E0.18144
G1 X101.371 Y94.81 E0.19376
G1 X101.675 Y94.646 E0.20639
G1 X101.894 Y94.531 E0.21544
G1 X102.472 Y94.235 E0.2392
G1 X103.344 Y93.833 E0.27433
G1 X103.913 Y93.616 E0.29661
G1 X104.124 Y93.542 E0.30479
G1 X104.72 Y93.351 E0.32769
G1 X105.16 Y93.223 E0.34446
G1 X105.454 Y93.142 E0.35561
G1 X106.06 Y92.983 E0.37854
G1 X106.999 Y92.778 E0.4137
G1 X108.199 Y92.632 E0.45793
G1 X109.001 Y92.577 E0.48734
G1 X109.364 Y92.558 E0.50064
G1 X109.904 Y92.538 E0.52041
G1 X110.865 Y92.542 E0.55557
G1 X112.02 Y92.654 E0.59802
G1 X112.466 Y92.72 E0.61452
G1 X112.793 Y92.773 E0.62664
G1 X113.554 Y92.908 E0.65491
G1 X114.374 Y93.085 E0.6856
G1 X114.445 Y93.103 E0.68828
G1 X115.731 Y93.51 E0.73763
G1 X116.301 Y93.728 E0.75996
G1 X116.642 Y93.865 E0.77341
G1 X117.2 Y94.099 E0.79554
G1 X118.38 Y94.675 E0.84358
G1 X118.446 Y94.712 E0.84635
G1 X119.137 Y95.132 E0.87594
G1 X119.67 Y95.482 E0.89927
G1 X119.974 Y95.689 E0.91272
G1 X120.466 Y96.035 E0.93473
G1 X121.228 Y96.619 E0.96985
G1 X121.988 Y97.314 E1.00753
G1 X122.315 Y97.645 E1.02455
G1 X122.54 Y97.879 E1.03643
G1 X122.718 Y98.068 E1.04593
G1 X123.218 Y98.612 E1.07296
G1 X123.838 Y99.346 E1.10811
G1 X124.368 Y100.086 E1.14142
G1 X124.479 Y100.255 E1.14881
G1 X124.676 Y100.566 E1.16228
G1 X124.829 Y100.816 E1.17301
G1 X124.976 Y101.063 E1.18352
G1 X125.349 Y101.708 E1.21078
G1 X125.795 Y102.559 E1.24593
G1 X126.036 Y103.106 E1.2678
G1 X126.125 Y103.323 E1.27638
G1 X126.347 Y103.91 E1.29934
G1 X126.466 Y104.252 E1.31259
G1 X126.56 Y104.534 E1.32347
G1 X126.772 Y105.198 E1.34897
G1 X127.026 Y106.125 E1.38413
G1 X127.203 Y107.076 E1.41952
G1 X127.253 Y107.445 E1.43315
G1 X127.314 Y107.943 E1.4515
G1 X127.349 Y108.265 E1.46335
G1 X127.408 Y108.892 E1.4864
G1 X127.452 Y109.573 E1.51136
G1 X127.427 Y110.869 E1.55879
G1 X127.402 Y111.2 E1.57093
G1 X127.344 Y111.774 E1.59204
G1 X127.226 Y112.71 E1.62655
G1 X127.067 Y113.658 E1.66172
G1 X126.784 Y114.732 E1.70236
G1 X126.535 Y115.523 E1.7327
G1 X126.422 Y115.865 E1.74588
G1 X126.299 Y116.217 E1.75952
G1 X125.869 Y117.275 E1.8013
G1 X125.796 Y117.432 E1.80763
G1 X125.388 Y118.228 E1.84036
G1 X125.236 Y118.498 E1.8517
G1 X125.07 Y118.783 E1.86376
G1 X124.881 Y119.095 E1.87711
G1 X124.518 Y119.678 E1.90224
G1 X123.977 Y120.471 E1.93736
G1 X123.403 Y121.181 E1.97076
G1 X123.276 Y121.326 E1.97781
G1 X123.051 Y121.575 E1.99009
G1 X122.778 Y121.869 E2.00477
G1 X122.585 Y122.072 E2.01502
G1 X122.081 Y122.589 E2.04143
G1 X121.383 Y123.249 E2.07658
G1 X120.606 Y123.867 E2.1129
G1 X120.386 Y124.027 E2.12285
G1 X120.119 Y124.215 E2.1348
G1 X119.734 Y124.477 E2.15184
G1 X119.491 Y124.638 E2.1625
G1 X119.131 Y124.867 E2.17811
G1 X118.715 Y125.121 E2.19595
G1 X117.875 Y125.587 E2.23109
G1 X117.156 Y125.917 E2.26003
G1 X116.53 Y126.179 E2.28486
G1 X116.182 Y126.318 E2.29857
G1 X115.775 Y126.473 E2.31451
G1 X114.467 Y126.884 E2.36467
G1 X114.363 Y126.91 E2.36859
G1 X113.655 Y127.064 E2.3951
G1 X112.83 Y127.216 E2.42579
G1 X112.393 Y127.288 E2.44199
G1 X111.958 Y127.351 E2.45807
G1 X111.002 Y127.449 E2.49323
G1 X110.064 Y127.467 E2.52756
G1 X109.824 Y127.462 E2.53634
G1 X109.488 Y127.451 E2.54864
G1 X109.128 Y127.433 E2.56183
G1 X108.199 Y127.37 E2.59589
G1 X107.244 Y127.264 E2.63105
G1 X106.291 Y127.076 E2.66659
G1 X106.059 Y127.02 E2.67532
G1 X105.719 Y126.932 E2.68817
G1 X105.261 Y126.805 E2.70556
G1 X104.627 Y126.618 E2.72974
G1 X104.007 Y126.415 E2.75361
G1 X103.842 Y126.356 E2.76002
G1 X102.59 Y125.824 E2.80979
G1 X102.248 Y125.654 E2.82376
G1 X101.835 Y125.438 E2.84081
G1 X101.135 Y125.054 E2.87003
G1 X100.312 Y124.557 E2.9052
G1 X99.737 Y124.15 E2.93097
G1 X99.615 Y124.058 E2.93656
G1 X99.35 Y123.852 E2.94884
G1 X99.089 Y123.643 E2.96108
G1 X98.711 Y123.327 E2.9791
G1 X98.079 Y122.775 E3.0098
G1 X97.382 Y122.113 E3.04497
G1 X96.716 Y121.363 E3.08167
G1 X96.542 Y121.149 E3.09176
G1 X96.351 Y120.908 E3.10301
G1 X96.081 Y120.553 E3.11933
G1 X95.638 Y119.954 E3.14659
G1 X95.247 Y119.391 E3.17166
G1 X95.204 Y119.325 E3.17455
G1 X94.714 Y118.499 E3.20968
G1 X94.473 Y118.027 E3.22907
G1 X94.221 Y117.503 E3.25035
G1 X94.07 Y117.177 E3.26349
G1 X93.813 Y116.597 E3.2867
G1 X93.36 Y115.397 E3.33363
G1 X93.342 Y115.34 E3.33581
G1 X93.112 Y114.504 E3.36754
G1 X92.964 Y113.874 E3.39121
G1 X92.893 Y113.551 E3.40331
G1 X92.776 Y112.98 E3.42464
G1 X92.622 Y112.032 E3.45978
G1 X92.548 Y111.063 E3.49533
G1 X92.539 Y110.803 E3.50485
G1 X92.532 Y110.463 E3.51729
G1 X92.531 Y109.861 E3.53932
G1 X92.54 Y109.188 E3.56394
G1 X92.593 Y108.229 E3.59908
G1 X92.736 Y107.219 E3.6364
G1 X92.774 Y107.016 E3.64396
G1 X92.83 Y106.737 E3.65437
G1 X92.95 Y106.184 E3.67507
G1 X93.049 Y105.758 E3.69107
G1 X93.153 Y105.344 E3.70669
G1 X93.228 Y105.068 E3.71715
G1 X93.518 Y104.152 E3.75231
G1 X93.811 Y103.425 E3.78098
G1 X94.134 Y102.695 E3.81019
G1 X94.282 Y102.372 E3.82319
G1 X94.436 Y102.051 E3.83621
G1 X95.129 Y100.811 E3.88818
G1 X95.249 Y100.624 E3.89631
G1 X95.656 Y100.03 E3.92266
G1 X96.058 Y99.482 E3.94752
G1 X96.288 Y99.179 E3.96144
G1 X96.592 Y98.792 E3.97945
G1 X97.216 Y98.062 E4.01458
G0 F6000 X97.551 Y98.349
G1 F1200 X98.187 Y97.72 E4.04731
G1 X98.426 Y97.502 E4.05914
G1 X98.732 Y97.233 E4.07405
G1 X98.996 Y97.01 E4.08669
G1 X99.514 Y96.581 E4.1113
G1 X99.792 Y96.358 E4.12434
G1 X100.556 Y95.806 E4.15882
G1 X101.117 Y95.459 E4.18296
G1 X101.297 Y95.355 E4.19056
G1 X101.58 Y95.197 E4.20242
G1 X102.094 Y94.922 E4.22375
G1 X102.672 Y94.626 E4.24751
G1 X103.528 Y94.233 E4.28197
G1 X104.058 Y94.031 E4.30272
G1 X104.269 Y93.957 E4.3109
G1 X104.842 Y93.774 E4.33291
G1 X105.282 Y93.646 E4.34967
G1 X105.566 Y93.567 E4.36046
G1 X106.172 Y93.408 E4.38338
G1 X107.093 Y93.208 E4.41786
G1 X108.23 Y93.071 E4.45976
G1 X109.032 Y93.016 E4.48917
G1 X109.38 Y92.998 E4.50192
G1 X109.92 Y92.978 E4.52169
G1 X110.862 Y92.983 E4.55615
G1 X111.956 Y93.09 E4.59637
G1 X112.402 Y93.156 E4.61286
G1 X112.716 Y93.207 E4.6245
G1 X113.477 Y93.342 E4.65278
G1 X114.266 Y93.511 E4.6823
G1 X114.337 Y93.529 E4.68498
G1 X115.574 Y93.921 E4.73246
G1 X116.144 Y94.139 E4.75478
G1 X116.472 Y94.271 E4.76772
G1 X117.03 Y94.505 E4.78986
G1 X118.165 Y95.059 E4.83606
G1 X118.231 Y95.096 E4.83883
G1 X118.896 Y95.5 E4.8673
G1 X119.429 Y95.85 E4.89063
G1 X119.721 Y96.048 E4.90354
G1 X120.213 Y96.394 E4.92554
G1 X120.96 Y96.969 E4.96003
G1 X121.677 Y97.625 E4.99559
G1 X121.998 Y97.949 E5.01227
G1 X122.223 Y98.183 E5.02415
G1 X122.394 Y98.366 E5.03331
G1 X122.894 Y98.91 E5.06035
G1 X123.502 Y99.63 E5.09482
G1 X124 Y100.327 E5.12616
G1 X124.111 Y100.496 E5.13356
G1 X124.301 Y100.796 E5.14655
G1 X124.454 Y101.046 E5.15728
G1 X124.595 Y101.283 E5.16737
G1 X124.968 Y101.928 E5.19463
G1 X125.405 Y102.763 E5.22911
G1 X125.629 Y103.273 E5.24949
G1 X125.718 Y103.49 E5.25807
G1 X125.932 Y104.054 E5.28014
G1 X126.051 Y104.396 E5.29339
G1 X126.141 Y104.668 E5.30387
G1 X126.353 Y105.332 E5.32937
G1 X126.601 Y106.241 E5.36384
G1 X126.767 Y107.138 E5.39722
G1 X126.817 Y107.498 E5.41051
G1 X126.878 Y107.996 E5.42887
G1 X126.911 Y108.306 E5.44028
G1 X126.97 Y108.933 E5.46332
G1 X127.012 Y109.589 E5.48737
G1 X126.988 Y110.836 E5.533
G1 X126.963 Y111.167 E5.54514
G1 X126.908 Y111.719 E5.56544
G1 X126.79 Y112.655 E5.59995
G1 X126.632 Y113.584 E5.63443
G1 X126.365 Y114.6 E5.67286
G1 X126.116 Y115.391 E5.7032
G1 X126.007 Y115.72 E5.71588
G1 X125.884 Y116.072 E5.72952
G1 X125.47 Y117.09 E5.76973
G1 X125.397 Y117.247 E5.77607
G1 X125.005 Y118.012 E5.80752
G1 X124.853 Y118.282 E5.81885
G1 X124.693 Y118.557 E5.83049
G1 X124.508 Y118.862 E5.84354
G1 X124.145 Y119.445 E5.86867
G1 X123.613 Y120.223 E5.90315
G1 X123.072 Y120.891 E5.9346
G1 X122.945 Y121.036 E5.94165
G1 X122.729 Y121.276 E5.95347
G1 X122.456 Y121.57 E5.96814
G1 X122.27 Y121.765 E5.978
G1 X121.766 Y122.282 E6.00442
G1 X121.08 Y122.928 E6.03889
G1 X120.347 Y123.511 E6.07316
G1 X120.127 Y123.671 E6.08311
G1 X119.87 Y123.852 E6.09461
G1 X119.491 Y124.11 E6.11139
G1 X119.248 Y124.271 E6.12205
G1 X118.901 Y124.492 E6.1371
G1 X118.485 Y124.746 E6.15494
G1 X117.661 Y125.202 E6.18939
G1 X116.986 Y125.511 E6.21655
G1 X116.36 Y125.773 E6.24138
G1 X116.025 Y125.907 E6.25458
G1 X115.618 Y126.062 E6.27051
G1 X114.36 Y126.458 E6.31877
G1 X114.256 Y126.484 E6.32269
G1 X113.575 Y126.631 E6.34818
G1 X112.75 Y126.783 E6.37887
G1 X112.33 Y126.852 E6.39444
G1 X111.895 Y126.915 E6.41052
G1 X110.958 Y127.011 E6.44498
G1 X110.073 Y127.028 E6.47737
G1 X109.833 Y127.023 E6.48615
G1 X109.51 Y127.011 E6.49798
G1 X108.934 Y126.98 E6.51908
G1 X108.229 Y126.931 E6.54493
G1 X107.293 Y126.826 E6.57939
G1 X106.394 Y126.648 E6.61292
G1 X106.162 Y126.592 E6.62166
G1 X105.835 Y126.508 E6.63401
G1 X105.386 Y126.383 E6.65106
G1 X104.752 Y126.196 E6.67524
G1 X104.155 Y126.001 E6.69822
G1 X103.99 Y125.942 E6.70463
G1 X102.786 Y125.43 E6.7525
G1 X102.444 Y125.26 E6.76647
G1 X102.046 Y125.052 E6.7829
G1 X101.346 Y124.668 E6.81211
G1 X100.54 Y124.18 E6.84658
G1 X100.002 Y123.799 E6.8707
G1 X99.88 Y123.707 E6.87629
G1 X99.625 Y123.508 E6.88813
G1 X99.364 Y123.299 E6.90036
G1 X99 Y122.995 E6.91771
G1 X98.368 Y122.443 E6.94841
G1 X97.685 Y121.794 E6.98288
G1 X97.058 Y121.086 E7.01748
G1 X96.884 Y120.872 E7.02757
G1 X96.7 Y120.639 E7.03844
G1 X96.435 Y120.291 E7.05444
G1 X95.992 Y119.692 E7.0817
G1 X95.616 Y119.151 E7.1058
G1 X95.573 Y119.085 E7.10868
G1 X95.092 Y118.275 E7.14315
G1 X94.87 Y117.837 E7.16111
G1 X94.618 Y117.313 E7.18239
G1 X94.473 Y116.999 E7.19504
G1 X94.216 Y116.419 E7.21825
G1 X93.779 Y115.265 E7.2634
G1 X93.761 Y115.208 E7.26558
G1 X93.54 Y114.404 E7.29609
G1 X93.392 Y113.774 E7.31977
G1 X93.324 Y113.463 E7.33141
G1 X93.207 Y112.892 E7.35274
G1 X93.057 Y111.962 E7.3872
G1 X92.988 Y111.048 E7.42074
G1 X92.979 Y110.788 E7.43026
G1 X92.972 Y110.461 E7.44222
G1 X92.971 Y109.867 E7.46396
G1 X92.98 Y109.194 E7.48858
G1 X93.033 Y108.253 E7.52306
G1 X93.169 Y107.3 E7.55828
G1 X93.26 Y106.828 E7.57587
G1 X93.378 Y106.283 E7.59627
G1 X93.477 Y105.857 E7.61227
G1 X93.577 Y105.459 E7.62729
G1 X93.652 Y105.183 E7.63775
G1 X93.938 Y104.285 E7.67223
G1 X94.213 Y103.603 E7.69913
G1 X94.536 Y102.873 E7.72834
G1 X94.679 Y102.563 E7.74083
G1 X94.833 Y102.242 E7.75386
G1 X95.499 Y101.048 E7.80388
G1 X95.619 Y100.861 E7.812
G1 X96.011 Y100.29 E7.83734
G1 X96.413 Y99.742 E7.86221
G1 X96.634 Y99.451 E7.87558
G1 X96.938 Y99.064 E7.89358
G1 X97.551 Y98.349 E7.92804
G0 F6000 X97.885 Y98.635
G1 F1200 X98.483 Y98.045 E7.95877
G1 X98.722 Y97.827 E7.97061
G1 X99.016 Y97.569 E7.98492
G1 X99.277 Y97.349 E7.99741
G1 X99.795 Y96.92 E8.02202
G1 X100.065 Y96.703 E8.03469
G1 X100.813 Y96.163 E8.06844
G1 X101.337 Y95.84 E8.09096
G1 X101.517 Y95.736 E8.09857
G1 X101.789 Y95.584 E8.10997
G1 X102.093 Y95.42 E8.12261
G1 X102.295 Y95.314 E8.13095
G1 X102.873 Y95.018 E8.15471
G1 X103.712 Y94.633 E8.18848
G1 X104.204 Y94.447 E8.20773
G1 X104.415 Y94.373 E8.21591
G1 X104.965 Y94.196 E8.23705
G1 X105.405 Y94.068 E8.25381
G1 X105.678 Y93.993 E8.26417
G1 X106.284 Y93.834 E8.28709
G1 X107.186 Y93.639 E8.32086
G1 X108.26 Y93.51 E8.36043
G1 X109.062 Y93.455 E8.38984
G1 X109.396 Y93.437 E8.40208
G1 X109.936 Y93.417 E8.42185
G1 X110.86 Y93.423 E8.45566
G1 X111.891 Y93.525 E8.49356
G1 X112.337 Y93.591 E8.51006
G1 X112.639 Y93.64 E8.52125
G1 X113.4 Y93.775 E8.54953
G1 X114.158 Y93.938 E8.57789
G1 X114.229 Y93.956 E8.58057
G1 X115.417 Y94.332 E8.62616
G1 X115.987 Y94.55 E8.64849
G1 X116.302 Y94.676 E8.6609
G1 X116.86 Y94.91 E8.68304
G1 X117.95 Y95.442 E8.72741
G1 X118.016 Y95.479 E8.73018
G1 X118.654 Y95.867 E8.7575
G1 X119.187 Y96.217 E8.78083
G1 X119.468 Y96.408 E8.79326
G1 X119.96 Y96.754 E8.81527
G1 X120.692 Y97.318 E8.84908
G1 X121.366 Y97.936 E8.88253
G1 X121.681 Y98.254 E8.89891
G1 X121.906 Y98.488 E8.91078
G1 X122.07 Y98.663 E8.91956
G1 X122.57 Y99.207 E8.94659
G1 X123.165 Y99.913 E8.98037
G1 X123.632 Y100.569 E9.00983
G1 X123.743 Y100.738 E9.01723
G1 X123.925 Y101.025 E9.02966
G1 X124.078 Y101.275 E9.04039
G1 X124.214 Y101.503 E9.0501
G1 X124.587 Y102.148 E9.07736
G1 X125.014 Y102.967 E9.11115
G1 X125.222 Y103.44 E9.13006
G1 X125.311 Y103.657 E9.13864
G1 X125.516 Y104.199 E9.15984
G1 X125.635 Y104.541 E9.17309
G1 X125.722 Y104.802 E9.18315
G1 X125.934 Y105.466 E9.20865
G1 X126.176 Y106.357 E9.24243
G1 X126.332 Y107.2 E9.2738
G1 X126.38 Y107.552 E9.2868
G1 X126.441 Y108.05 E9.30515
G1 X126.473 Y108.347 E9.31608
G1 X126.532 Y108.974 E9.33912
G1 X126.573 Y109.605 E9.36226
G1 X126.55 Y110.803 E9.40609
G1 X126.525 Y111.134 E9.41824
G1 X126.471 Y111.664 E9.43773
G1 X126.353 Y112.6 E9.47225
G1 X126.198 Y113.51 E9.50602
G1 X125.945 Y114.468 E9.54227
G1 X125.696 Y115.259 E9.57261
G1 X125.591 Y115.574 E9.58476
G1 X125.468 Y115.926 E9.5984
G1 X125.071 Y116.904 E9.63702
G1 X124.998 Y117.061 E9.64335
G1 X124.621 Y117.796 E9.67357
G1 X124.469 Y118.066 E9.68491
G1 X124.316 Y118.33 E9.69607
G1 X124.134 Y118.629 E9.70888
G1 X123.771 Y119.212 E9.734
G1 X123.25 Y119.974 E9.76778
G1 X122.741 Y120.602 E9.79735
G1 X122.614 Y120.747 E9.8044
G1 X122.407 Y120.977 E9.81573
G1 X122.134 Y121.271 E9.8304
G1 X121.955 Y121.458 E9.83987
G1 X121.451 Y121.975 E9.86629
G1 X120.779 Y122.608 E9.90007
G1 X120.088 Y123.155 E9.93231
G1 X119.868 Y123.315 E9.94226
G1 X119.622 Y123.489 E9.95329
G1 X119.248 Y123.743 E9.96983
G1 X119.005 Y123.904 E9.98049
G1 X118.672 Y124.116 E9.99493
G1 X118.256 Y124.37 E10.01277
G1 X117.448 Y124.817 E10.04655
G1 X116.817 Y125.105 E10.07193
G1 X116.191 Y125.367 E10.09676
G1 X115.869 Y125.496 E10.10945
G1 X115.462 Y125.651 E10.12538
G1 X114.253 Y126.031 E10.17175
G1 X114.149 Y126.057 E10.17567
G1 X113.496 Y126.199 E10.20012
G1 X112.671 Y126.351 E10.23081
G1 X112.267 Y126.417 E10.24579
G1 X111.832 Y126.48 E10.26187
G1 X110.913 Y126.573 E10.29566
G1 X110.082 Y126.588 E10.32607
G1 X109.842 Y126.583 E10.33485
G1 X109.532 Y126.572 E10.3462
G1 X109.172 Y126.554 E10.35939
G1 X108.26 Y126.492 E10.39283
G1 X107.342 Y126.389 E10.42663
G1 X106.498 Y126.22 E10.45812
G1 X106.266 Y126.164 E10.46685
G1 X105.951 Y126.083 E10.47875
G1 X105.51 Y125.961 E10.49549
G1 X104.876 Y125.774 E10.51968
G1 X104.303 Y125.587 E10.54173
G1 X104.138 Y125.528 E10.54814
G1 X102.982 Y125.036 E10.5941
G1 X102.64 Y124.866 E10.60808
G1 X102.258 Y124.666 E10.62385
G1 X101.558 Y124.282 E10.65306
G1 X100.769 Y123.803 E10.68683
G1 X100.267 Y123.447 E10.70935
G1 X99.9 Y123.165 E10.72628
G1 X99.639 Y122.956 E10.73851
G1 X99.29 Y122.664 E10.75516
G1 X98.658 Y122.112 E10.78586
G1 X97.989 Y121.475 E10.81966
G1 X97.399 Y120.808 E10.85224
G1 X97.225 Y120.594 E10.86233
G1 X97.048 Y120.371 E10.87275
G1 X96.788 Y120.03 E10.88844
G1 X96.345 Y119.431 E10.91569
G1 X95.984 Y118.911 E10.93885
G1 X95.941 Y118.845 E10.94173
G1 X95.266 Y117.646 E10.99208
G1 X95.014 Y117.122 E11.01335
G1 X94.875 Y116.821 E11.02548
G1 X94.618 Y116.241 E11.04869
G1 X94.199 Y115.132 E11.09206
G1 X94.181 Y115.075 E11.09425
G1 X93.969 Y114.303 E11.12354
G1 X93.821 Y113.673 E11.14722
G1 X93.755 Y113.375 E11.15838
G1 X93.638 Y112.804 E11.17971
G1 X93.492 Y111.892 E11.2135
G1 X93.427 Y111.033 E11.24502
G1 X93.418 Y110.773 E11.25453
G1 X93.412 Y110.459 E11.26602
G1 X93.411 Y109.872 E11.2875
